icons/bhi_edit.svg

<svg xmlns="http://www.w3.org/2000/svg" viewBox="0 0 512 512" enable-background="new 0 0 512 512"><path fill="#010101" d="M0 403.9v108.1h108.1l312.9-315.7-108.1-108.1-312.9 315.7zm503.5-290.1c11.4-11.4 11.4-28.4 0-39.8l-65.5-65.5c-11.4-11.4-28.4-11.4-39.8 0l-51.2 51.2 108.1 108.1 48.4-54z"/></svg>

<?xml version="1.0" encoding="utf-8"?>
<!-- Generator: Adobe Illustrator 19.2.0, SVG Export Plug-In . SVG Version: 6.00 Build 0)  -->
<svg version="1.1" id="Layer_1" xmlns="http://www.w3.org/2000/svg" xmlns:xlink="http://www.w3.org/1999/xlink" x="0px" y="0px"
	 viewBox="0 0 512 512" enable-background="new 0 0 512 512" xml:space="preserve">
<g id="create_3_">
	<path fill="#010101" d="M0,403.9V512h108.1L421,196.3L312.9,88.2L0,403.9z M503.5,113.8c11.4-11.4,11.4-28.4,0-39.8L438,8.5
		c-11.4-11.4-28.4-11.4-39.8,0L347,59.7l108.1,108.1L503.5,113.8z"/>
</g>
</svg>
